X: 707
T: Aggie's Cauldron
R: jig
M: 6/8
K: Dmajor
|:E2 B BAB|BdB BAF|E2 B BAB|BdB A2 B|
E2 B BAB|BdB BAF|BdB BAF|FED E2 B:|
e2 e efe|efe dBA|e2 e efe|dBA B2 A|
e2 e efe|efe dBA|dcB BAF|FED E3:|

